X: 1468
T: Molly Malone
M:C|
L:1/8
N:"collected by J. O'Neill"
B:O'Neill's 1468
Z:"Transcribed by Bob Safranek, rjs@gsp.org"
K:G
d | g2 (dc) B2 (GB) | Abag fdef | gfgd ecdB | cAFD GBdf |
    g2 (dc) B2 (GB) | Abag fdef | gbfa egdB | cAdc BG G ||
c | BGDG    EGDG    | ABcA cedc | BGDG EGce | gedc BGGc |
    BGDG    EGDG    | ABcA cedc | BdgB ceag | fdcA BG G |]


